X:27
T:Waterloo Dance. AJH.027
T:Blanchland Races,aka. AJH.027
T:Timour the Tartar,aka. AJH.027
M:4/4
L:1/8
Q:1/4=200
S:A.J.Hughes MS
N:Not the usual Waterloo Dance.
N:More commonly known as ‘Timour the Tartar’ or ‘Blanchland Races’
O:England
A:North Shropshire
Z:Neil Brookes 2006
K:G
D|G2 (3BAG”triplets written as 3 semiqu n MS” dGBG|dGgG fGeG|\
dG (3BAG dGcG|ADBD cDBD|!
G2 (3BAG dBBA|dGg GfGeG|dedB dgdB|D2F2G3:|!
|:F|F2 (3BAG FDFD|ADBD cDBD|B2(3cBA dGdG|dGgG dGeG|!
dc (3BAG gGeG|dB (3BAG gGfG|dBed cBAG|GABG FDEF|”as writ”G2:|

